X: 235
T: Monsignor's Polka
N: 132179
C: BB 10/06
L: 1/8
M: 2/4
R: polka
Q: 1/8=270
K: G
"G"G>B "D"AF | "G"GA/B/ "C"ce | "G"dB/A/ "Em"Ge| "G"dc/B/ "D"A2 |
"G"G>B "D"AF | "G"GA/B/ "C"ce  | "G"dB/G/ "Em"EF/G/ | "D"AF "G"G2 :|
"G"B>G "Am"cA | "D"de/f/ "G"gd | "Em"Bc/d/ ef | "G"gB "D"A2 |
"G"B>G "Am"cA | "D"de/f/ "G"gb | "Am7"ag/e/ "G"dc/B/ | "D"AF "G"G2 :|
%%%%%%%%%%%%%%%%%%
